packages/sources/assets/src/assets/union-pay.svg

<svg width="58" height="40" viewBox="0 0 58 40" fill="none" xmlns="http://www.w3.org/2000/svg">
<rect x="0.5" y="0.5" width="57" height="39" rx="3.5" fill="white" stroke="#F3F3F3"/>
<path fill-rule="evenodd" clip-rule="evenodd" d="M49.6704 6.00831L38.6172 6.00549C38.6159 6.00549 38.6143 6.00549 38.6143 6.00549C38.6058 6.00549 38.5974 6.007 38.5891 6.007C37.0706 6.05295 35.1794 7.25608 34.835 8.73964L29.6078 31.5886C29.2634 33.086 30.2004 34.3045 31.7079 34.3269H43.3197C44.8042 34.2543 46.2467 33.065 46.5853 31.5983L51.8126 8.74921C52.1626 7.23657 51.2029 6.00831 49.6704 6.00831Z" fill="#01798A"/>
<path fill-rule="evenodd" clip-rule="evenodd" d="M29.6079 31.5885L34.835 8.73953C35.1795 7.25597 37.0707 6.05284 38.5891 6.00688L34.1944 6.00407L26.2764 6.00256C24.7537 6.03333 22.8379 7.2449 22.4936 8.73953L17.2649 31.5885C16.9192 33.0859 17.8576 34.3043 19.3641 34.3268H31.7079C30.2005 34.3043 29.2634 33.0859 29.6079 31.5885" fill="#024381"/>
<path fill-rule="evenodd" clip-rule="evenodd" d="M17.2649 31.5885L22.4936 8.73959C22.8379 7.24496 24.7537 6.03339 26.2764 6.00263L16.133 6C14.6018 6 12.6386 7.22545 12.2887 8.73959L7.06 31.5885C7.02819 31.728 7.01053 31.8646 7 31.9983V32.4222C7.10236 33.5138 7.9462 34.3086 9.1592 34.3268H19.3641C17.8576 34.3044 16.9192 33.0859 17.2649 31.5885Z" fill="#DD0228"/>
<path fill-rule="evenodd" clip-rule="evenodd" d="M26.4902 22.6519H26.6822C26.8586 22.6519 26.9773 22.5934 27.0329 22.4776L27.5317 21.7401H28.8675L28.5889 22.2252H30.1906L29.9874 22.9684H28.0816C27.8621 23.2946 27.5919 23.448 27.267 23.4298H26.2743L26.4902 22.6519H26.4902ZM26.2709 23.717H29.7799L29.5562 24.5244H28.145L27.9297 25.3036H29.3029L29.0792 26.1109H27.706L27.387 27.2624C27.308 27.4548 27.4119 27.5414 27.6969 27.5217H28.816L28.6087 28.2719H26.46C26.0527 28.2719 25.913 28.0418 26.0408 27.5804L26.4486 26.1109H25.5709L25.7938 25.3036H26.6717L26.8869 24.5244H26.0478L26.2709 23.717H26.2709ZM31.8716 21.7346L31.8163 22.2072C31.8163 22.2072 32.4782 21.7163 33.0794 21.7163H35.3008L34.4513 24.7542C34.3808 25.1015 34.0787 25.2742 33.5452 25.2742H31.0274L30.4376 27.4074C30.4036 27.5217 30.4517 27.5804 30.5787 27.5804H31.0741L30.892 28.2425H29.6325C29.1491 28.2425 28.948 28.0989 29.0278 27.8104L30.6943 21.7346H31.8716H31.8716ZM33.7527 22.5934H31.77L31.5328 23.4131C31.5328 23.4131 31.863 23.1776 32.4148 23.1692C32.9651 23.1607 33.5932 23.1692 33.5932 23.1692L33.7527 22.5934ZM33.0344 24.495C33.181 24.5146 33.263 24.4573 33.2729 24.3221L33.3942 23.89H31.4085L31.2419 24.495H33.0344ZM31.695 25.4765H32.8396L32.8183 25.9658H33.1231C33.277 25.9658 33.3534 25.9171 33.3534 25.8209L33.4436 25.5044H34.3949L34.2678 25.9658C34.1604 26.3506 33.8755 26.5514 33.4126 26.571H32.8029L32.8001 27.4074C32.7889 27.5414 32.9115 27.6097 33.1641 27.6097H33.7371L33.5522 28.2719H32.1777C31.7924 28.29 31.6035 28.1087 31.6074 27.724L31.695 25.4765V25.4765Z" fill="white"/>
<path fill-rule="evenodd" clip-rule="evenodd" d="M17.8252 17.6873C17.6699 18.4388 17.31 19.016 16.7518 19.4258C16.1987 19.8288 15.4852 20.0309 14.6117 20.0309C13.7897 20.0309 13.187 19.8245 12.8024 19.4105C12.5357 19.1163 12.403 18.7426 12.403 18.2909C12.403 18.1041 12.4256 17.9034 12.4708 17.6873L13.4015 13.2539H14.8071L13.8891 17.6371C13.8609 17.7584 13.8496 17.8714 13.8511 17.9731C13.8496 18.1976 13.906 18.3816 14.0203 18.5252C14.1868 18.7385 14.4571 18.8444 14.8332 18.8444C15.2657 18.8444 15.6221 18.7399 15.8987 18.5293C16.1754 18.3202 16.356 18.0233 16.4371 17.6371L17.358 13.2539H18.7565L17.8252 17.6873Z" fill="white"/>
<path fill-rule="evenodd" clip-rule="evenodd" d="M23.7284 15.9431H24.8292L23.9669 19.8998H22.8682L23.7284 15.9431ZM24.0749 14.5016H25.1856L24.9781 15.462H23.8675L24.0749 14.5016Z" fill="white"/>
<path fill-rule="evenodd" clip-rule="evenodd" d="M25.8037 19.5987C25.5157 19.3268 25.3704 18.9602 25.369 18.4945C25.369 18.415 25.3739 18.3244 25.3845 18.2254C25.3951 18.125 25.4086 18.0274 25.4276 17.9368C25.5581 17.2941 25.8362 16.7839 26.2644 16.4074C26.692 16.0296 27.2079 15.84 27.8119 15.84C28.3066 15.84 28.6989 15.9766 28.9861 16.2499C29.2732 16.5246 29.4172 16.8953 29.4172 17.3667C29.4172 17.4474 29.4109 17.5409 29.4003 17.6412C29.3875 17.743 29.3722 17.8406 29.3543 17.9368C29.2267 18.5697 28.9495 19.0745 28.5211 19.444C28.0928 19.8162 27.5784 20.0015 26.9786 20.0015C26.4818 20.0015 26.0909 19.8677 25.8037 19.5987M27.9016 18.8151C28.0956 18.6074 28.2346 18.2923 28.3193 17.8727C28.332 17.8072 28.3432 17.7388 28.3502 17.6705C28.3573 17.6036 28.3601 17.5409 28.3601 17.4837C28.3601 17.2397 28.2973 17.0501 28.171 16.9163C28.0455 16.781 27.867 16.7142 27.6363 16.7142C27.3314 16.7142 27.083 16.82 26.8884 17.032C26.692 17.244 26.553 17.5646 26.4655 17.9912C26.4535 18.0567 26.4437 18.1223 26.4346 18.1864C26.4275 18.2519 26.4254 18.3132 26.4268 18.369C26.4268 18.6116 26.4896 18.7984 26.6159 18.9308C26.7414 19.0633 26.9191 19.1288 27.1529 19.1288C27.4591 19.1288 27.7075 19.0243 27.9016 18.8151" fill="white"/>
<path fill-rule="evenodd" clip-rule="evenodd" d="M36.5597 22.6853L36.8251 21.7625H38.1672L38.1093 22.1011C38.1093 22.1011 38.7951 21.7625 39.289 21.7625C39.7831 21.7625 40.9485 21.7625 40.9485 21.7625L40.6848 22.6853H40.4237L39.1718 27.038H39.4329L39.1846 27.9024H38.9235L38.8149 28.2774H37.5151L37.6236 27.9024H35.0594L35.3093 27.038H35.5662L36.8192 22.6853H36.5597H36.5597ZM38.0077 22.6853L37.6661 23.8633C37.6661 23.8633 38.2506 23.6418 38.7543 23.579C38.8656 23.1677 39.011 22.6853 39.011 22.6853H38.0077L38.0077 22.6853ZM37.5079 24.4155L37.1652 25.6494C37.1652 25.6494 37.8129 25.3343 38.2574 25.3078C38.3857 24.8309 38.5143 24.4155 38.5143 24.4155H37.5079V24.4155ZM37.7591 27.038L38.016 26.143H37.0143L36.756 27.038H37.7591ZM41.0051 21.7053H42.2669L42.3204 22.1652C42.3121 22.2823 42.3825 22.3383 42.5321 22.3383H42.755L42.5295 23.1175H41.6021C41.248 23.1356 41.0659 23.0019 41.049 22.7132L41.0051 21.7053ZM40.6354 23.3769H44.7224L44.4826 24.2134H43.1813L42.9582 24.9912H44.2581L44.0168 25.8264H42.569L42.2414 26.3159H42.95L43.1137 27.2959C43.1333 27.3935 43.2208 27.4409 43.3704 27.4409H43.5905L43.3592 28.248H42.5802C42.1765 28.2676 41.9678 28.1338 41.9507 27.8452L41.7629 26.9502L41.1181 27.9024C40.9656 28.1714 40.7313 28.297 40.4154 28.2774H39.2256L39.457 27.4701H39.8283C39.9807 27.4701 40.1076 27.4032 40.2219 27.268L41.2311 25.8264H39.9298L40.171 24.9912H41.5823L41.8068 24.2134H40.3941L40.6354 23.3769Z" fill="white"/>
<path fill-rule="evenodd" clip-rule="evenodd" d="M19.12 15.9417H20.1128L19.9992 16.5133L20.1417 16.3502C20.4635 16.0101 20.8544 15.8413 21.3159 15.8413C21.7336 15.8413 22.0349 15.9613 22.2241 16.2024C22.4103 16.4436 22.4611 16.7769 22.373 17.2049L21.8261 19.9012H20.8057L21.2997 17.4572C21.3505 17.2049 21.3365 17.0166 21.258 16.8953C21.1805 16.774 21.0322 16.7141 20.8184 16.7141C20.5559 16.7141 20.3351 16.7949 20.1551 16.9553C19.9744 17.117 19.8552 17.3415 19.7967 17.6273L19.3415 19.9012H18.3191L19.12 15.9417Z" fill="white"/>
<path fill-rule="evenodd" clip-rule="evenodd" d="M30.5052 15.9417H31.4988L31.386 16.5133L31.5269 16.3502C31.849 16.0101 32.2412 15.8413 32.7013 15.8413C33.1191 15.8413 33.421 15.9613 33.6086 16.2024C33.7937 16.4436 33.8472 16.7769 33.7569 17.2049L33.2121 19.9012H32.1904L32.6844 17.4572C32.7351 17.2049 32.7211 17.0166 32.6434 16.8953C32.5629 16.774 32.4175 16.7141 32.2046 16.7141C31.942 16.7141 31.7219 16.7949 31.5398 16.9553C31.3591 17.117 31.2393 17.3415 31.1829 17.6273L30.7256 19.9012H29.7045L30.5052 15.9417" fill="white"/>
<path fill-rule="evenodd" clip-rule="evenodd" d="M35.4166 13.4879H38.3012C38.8559 13.4879 39.2848 13.6121 39.5797 13.8559C39.8732 14.1028 40.0202 14.4569 40.0202 14.9184V14.9323C40.0202 15.0201 40.0143 15.1191 40.006 15.2264C39.9917 15.3324 39.9733 15.4397 39.9496 15.5513C39.8226 16.1619 39.5275 16.6527 39.0718 17.025C38.6144 17.3958 38.0726 17.5826 37.4489 17.5826H35.9019L35.4236 19.9011H34.0842L35.4166 13.4879M36.1376 16.4673H37.4206C37.755 16.4673 38.0202 16.3905 38.2137 16.2387C38.4057 16.0853 38.5327 15.8511 38.6032 15.5333C38.6144 15.4746 38.6214 15.4217 38.6299 15.3729C38.6343 15.3269 38.6398 15.2808 38.6398 15.2363C38.6398 15.009 38.5581 14.8445 38.3943 14.7413C38.2306 14.6366 37.9739 14.5866 37.6181 14.5866H36.5285L36.1376 16.4673" fill="white"/>
<path fill-rule="evenodd" clip-rule="evenodd" d="M46.015 20.6667C45.5916 21.5561 45.1881 22.0746 44.9512 22.3158C44.7138 22.5543 44.244 23.1092 43.1122 23.0673L43.2096 22.3884C44.162 22.0984 44.6772 20.792 44.9707 20.2135L44.6208 15.9529L45.3575 15.9431H45.9756L46.042 18.6158L47.2005 15.9431H48.3733L46.015 20.6667" fill="white"/>
<path fill-rule="evenodd" clip-rule="evenodd" d="M42.7355 16.2652L42.2695 16.5817C41.7827 16.2053 41.3381 15.9725 40.4803 16.3656C39.3116 16.9009 38.335 21.0068 41.5527 19.6545L41.7361 19.8691L43.0021 19.9012L43.8333 16.1704L42.7355 16.2652M42.0156 18.3049C41.8123 18.8975 41.3581 19.2892 41.0024 19.1777C40.6468 19.0689 40.5198 18.4972 40.7258 17.9034C40.929 17.3094 41.3862 16.9191 41.739 17.0306C42.0946 17.1394 42.223 17.7109 42.0156 18.3049Z" fill="white"/>
<path fill-rule="evenodd" clip-rule="evenodd" d="M38.6143 6.01289L34.1943 6.00415L38.5891 6.02289C38.5974 6.02289 38.6058 6.01289 38.6143 6.01289" fill="#E02F41"/>
<path fill-rule="evenodd" clip-rule="evenodd" d="M34.1944 6.0275L26.3372 6C26.3174 6 26.2969 6.00874 26.2764 6.0175L34.1944 6.0275" fill="#2E4F7D"/>
</svg>

<svg width="58" height="40" fill="none" xmlns="http://www.w3.org/2000/svg"><rect x=".5" y=".5" width="57" height="39" rx="3.5" fill="#fff" stroke="#F3F3F3"/><path fill-rule="evenodd" clip-rule="evenodd" d="m49.67 6.008-11.053-.003h-.003l-.025.002c-1.518.046-3.41 1.25-3.754 2.733l-5.227 22.849c-.345 1.497.592 2.715 2.1 2.738H43.32c1.484-.073 2.927-1.262 3.265-2.729L51.813 8.75c.35-1.512-.61-2.74-2.143-2.74" fill="#01798A"/><path fill-rule="evenodd" clip-rule="evenodd" d="M29.608 31.588 34.835 8.74c.344-1.484 2.236-2.687 3.754-2.733l-4.395-.003-7.918-.001c-1.522.03-3.438 1.242-3.782 2.737l-5.23 22.849c-.345 1.497.594 2.715 2.1 2.738h12.344c-1.507-.023-2.445-1.241-2.1-2.738" fill="#024381"/><path fill-rule="evenodd" clip-rule="evenodd" d="M17.265 31.588 22.494 8.74c.344-1.495 2.26-2.707 3.782-2.737L16.133 6c-1.531 0-3.494 1.225-3.844 2.74L7.06 31.589c-.032.139-.05.276-.06.41v.423c.102 1.092.946 1.887 2.16 1.905h10.204c-1.506-.023-2.445-1.241-2.1-2.738" fill="#DD0228"/><path fill-rule="evenodd" clip-rule="evenodd" d="M26.49 22.652h.192c.177 0 .295-.059.35-.174l.5-.738h1.335l-.278.485h1.602l-.204.743h-1.905c-.22.327-.49.48-.815.462h-.993l.216-.778Zm-.22 1.065h3.51l-.224.807h-1.411l-.215.78h1.373l-.224.807h-1.373l-.319 1.151c-.079.193.025.28.31.26h1.119l-.207.75H26.46c-.407 0-.547-.23-.42-.692l.409-1.47h-.878l.223-.806h.878l.215-.78h-.84l.224-.807Zm5.602-1.982-.056.472s.662-.49 1.263-.49h2.222l-.85 3.037c-.07.348-.372.52-.906.52h-2.518l-.59 2.133c-.033.115.015.173.142.173h.495l-.182.663h-1.26c-.483 0-.684-.144-.604-.433l1.666-6.075h1.178Zm1.88.858H31.77l-.237.82s.33-.235.882-.244c.55-.008 1.178 0 1.178 0l.16-.576Zm-.718 1.902c.147.02.229-.038.239-.173l.121-.432H31.41l-.167.605h1.792Zm-1.339.982h1.145l-.022.489h.305c.154 0 .23-.049.23-.145l.09-.317h.952l-.127.462c-.108.385-.392.585-.855.605h-.61l-.003.836c-.011.134.111.203.364.203h.573l-.185.662h-1.374c-.386.018-.574-.163-.57-.548l.087-2.247Zm-13.87-7.79c-.155.752-.515 1.329-1.073 1.739-.553.403-1.267.605-2.14.605-.822 0-1.425-.206-1.81-.62-.266-.295-.399-.668-.399-1.12 0-.187.023-.388.068-.604l.93-4.433h1.406l-.918 4.383c-.028.121-.04.234-.038.336a.85.85 0 0 0 .17.552c.166.213.436.32.812.32.433 0 .79-.105 1.066-.316.276-.209.457-.506.538-.892l.921-4.383h1.398l-.93 4.433m5.902-1.744h1.101l-.862 3.957h-1.099l.86-3.957Zm.347-1.441h1.11l-.207.96h-1.11l.207-.96Zm1.729 5.097c-.288-.272-.434-.639-.435-1.105a2.91 2.91 0 0 1 .059-.558c.13-.642.408-1.152.836-1.529s.944-.567 1.548-.567c.495 0 .887.137 1.174.41.287.275.431.645.431 1.117 0 .08-.006.174-.017.274-.012.102-.028.2-.046.296-.127.633-.404 1.137-.833 1.507-.428.372-.943.558-1.542.558-.497 0-.888-.134-1.175-.403m2.098-.784c.194-.208.333-.523.417-.942a2.203 2.203 0 0 0 .041-.389c0-.244-.063-.434-.189-.568-.125-.135-.304-.202-.535-.202a.968.968 0 0 0-.748.318c-.196.212-.335.533-.423.96a4.922 4.922 0 0 0-.03.194 1.17 1.17 0 0 0-.008.183c0 .243.063.43.189.562.125.132.303.198.537.198a.974.974 0 0 0 .749-.314m8.658 3.87.265-.922h1.342l-.058.338s.686-.338 1.18-.338h1.66l-.264.922h-.261l-1.252 4.353h.26l-.247.864h-.262l-.108.375h-1.3l.109-.375h-2.565l.25-.864h.257l1.253-4.353h-.26Zm1.448 0-.342 1.178s.585-.221 1.088-.284c.112-.411.257-.894.257-.894h-1.003Zm-.5 1.73-.343 1.234s.648-.315 1.092-.341c.129-.477.257-.892.257-.892h-1.006Zm.251 2.623.257-.895h-1.002l-.258.895h1.003Zm3.246-5.333h1.262l.053.46c-.008.117.063.173.212.173h.223l-.226.78h-.927c-.354.018-.536-.116-.553-.405l-.044-1.008Zm-.37 1.672h4.087l-.24.836h-1.3l-.224.778h1.3l-.241.835h-1.448l-.328.49h.709l.164.98c.02.098.107.145.256.145h.22l-.23.807h-.78c-.404.02-.612-.114-.63-.403l-.187-.895-.645.952c-.152.27-.387.395-.703.375h-1.19l.232-.807h.371c.153 0 .28-.067.394-.202l1.01-1.442H39.93l.241-.835h1.411l.225-.778h-1.413l.241-.836ZM19.12 15.942h.993l-.114.571.143-.163c.322-.34.712-.509 1.174-.509.418 0 .719.12.908.361.186.242.237.575.149 1.003l-.547 2.696h-1.02l.494-2.444c.05-.252.037-.44-.042-.562-.078-.121-.226-.18-.44-.18a.961.961 0 0 0-.663.24c-.18.162-.3.387-.358.672l-.456 2.274H18.32l.801-3.96m11.384.001h.994l-.113.571.14-.163a1.56 1.56 0 0 1 1.175-.509c.418 0 .72.12.908.361.185.242.238.575.148 1.003l-.545 2.696H32.19l.494-2.444c.051-.252.037-.44-.04-.562-.081-.121-.227-.18-.44-.18a.968.968 0 0 0-.664.24c-.18.162-.3.387-.357.672l-.457 2.274h-1.021l.8-3.96m4.912-2.453H38.3c.555 0 .984.124 1.279.368.293.247.44.6.44 1.062v.014c0 .088-.006.187-.014.294a4.366 4.366 0 0 1-.056.325 2.5 2.5 0 0 1-.878 1.474c-.458.37-1 .558-1.623.558h-1.547l-.478 2.318h-1.34l1.333-6.413m.72 2.98h1.284c.334 0 .6-.078.793-.23.192-.153.319-.387.39-.705.01-.058.017-.111.026-.16.004-.046.01-.092.01-.137 0-.227-.082-.392-.246-.495-.163-.104-.42-.154-.776-.154h-1.09l-.39 1.88m9.878 4.2c-.423.89-.827 1.408-1.064 1.649-.237.238-.707.793-1.839.751l.098-.679c.952-.29 1.467-1.596 1.76-2.175l-.35-4.26.738-.01h.618l.066 2.673 1.158-2.673h1.173l-2.358 4.724m-3.279-4.402-.466.317c-.487-.377-.932-.61-1.79-.216-1.168.535-2.145 4.64 1.073 3.288l.183.215 1.266.032.831-3.73-1.097.094m-.72 2.04c-.204.593-.658.984-1.014.873-.355-.11-.482-.68-.276-1.275.203-.594.66-.984 1.013-.872.356.108.484.68.277 1.274Z" fill="#fff"/><path fill-rule="evenodd" clip-rule="evenodd" d="m38.614 6.013-4.42-.009 4.395.019c.008 0 .017-.01.025-.01" fill="#E02F41"/><path fill-rule="evenodd" clip-rule="evenodd" d="M34.194 6.027 26.337 6c-.02 0-.04.009-.06.018l7.917.01" fill="#2E4F7D"/></svg>
